public/svgs/duotone/arrow-down-wide-short.svg

<svg xmlns="http://www.w3.org/2000/svg" viewBox="0 0 576 512"><!-- Font Awesome Pro 6.0.0-alpha2 by @fontawesome - https://fontawesome.com License - https://fontawesome.com/license (Commercial License) --><defs><style>.fa-secondary{opacity:.4}</style></defs><path d="M415.998 288H320C302.326 288 288 302.328 288 320S302.326 352 320 352H415.998C433.672 352 447.998 337.672 447.998 320S433.672 288 415.998 288ZM543.998 32H320C302.326 32 288 46.328 288 64S302.326 96 320 96H543.998C561.672 96 575.998 81.672 575.998 64S561.672 32 543.998 32ZM352 416H320C302.326 416 288 430.328 288 448S302.326 480 320 480H352C369.674 480 384 465.672 384 448S369.674 416 352 416ZM479.998 160H320C302.326 160 288 174.328 288 192S302.326 224 320 224H479.998C497.672 224 511.998 209.672 511.998 192S497.672 160 479.998 160Z" class="fa-secondary"/><path d="M237.623 328.695C250.652 340.648 251.527 360.914 239.591 373.961L151.593 470.055C139.468 483.312 116.531 483.312 104.406 470.055L16.408 373.961C4.472 360.914 5.347 340.648 18.377 328.695C24.517 323.062 32.267 320.281 39.986 320.281C48.658 320.281 57.283 323.781 63.595 330.664L96 366.062V64.031C96 46.328 110.328 32 128 32S160 46.328 160 64.031V366.063L192.404 330.664C204.357 317.656 224.607 316.75 237.623 328.695Z" class="fa-primary"/></svg>

<svg xmlns="http://www.w3.org/2000/svg" viewBox="0 0 576 512"><!--! Font Awesome Pro 6.5.1 by @fontawesome - https://fontawesome.com License - https://fontawesome.com/license (Commercial License) Copyright 2023 Fonticons, Inc. --><defs><style>.fa-secondary{opacity:.4}</style></defs><path class="fa-secondary" d="M288 448c0 17.7 14.3 32 32 32h32c17.7 0 32-14.3 32-32s-14.3-32-32-32H320c-17.7 0-32 14.3-32 32zm0-128c0 17.7 14.3 32 32 32h96c17.7 0 32-14.3 32-32s-14.3-32-32-32H320c-17.7 0-32 14.3-32 32zm0-128c0 17.7 14.3 32 32 32H480c17.7 0 32-14.3 32-32s-14.3-32-32-32H320c-17.7 0-32 14.3-32 32zm0-128c0 17.7 14.3 32 32 32H544c17.7 0 32-14.3 32-32s-14.3-32-32-32H320c-17.7 0-32 14.3-32 32z"/><path class="fa-primary" d="M128 480c9 0 17.5-3.8 23.6-10.4l88-96c11.9-13 11.1-33.3-2-45.2s-33.3-11.1-45.2 2L160 365.7V64c0-17.7-14.3-32-32-32s-32 14.3-32 32V365.7L63.6 330.4c-11.9-13-32.2-13.9-45.2-2s-13.9 32.2-2 45.2l88 96C110.5 476.2 119 480 128 480z"/></svg>
